assets/images/vector/icons/bag_shopping_icon.svg

<svg fill="none" height="60" viewBox="0 0 53 60" width="53" xmlns="http://www.w3.org/2000/svg"><g stroke="#111" stroke-linecap="round" stroke-linejoin="round" stroke-width="10"><path d="m18.5625 15.8333v-5.8333c0-4.14333 3.3567-7.5 7.5-7.5s7.5 3.35667 7.5 7.5v5.8333"/><path d="m13.8424 15.8333h24.4434c3.4566 0 6.3433 2.6433 6.64 6.09l2.1733 25c.34 3.8966-2.7333 7.2433-6.64 7.2433h-28.7933c-3.91005 0-6.98005-3.35-6.64005-7.2433l2.17334-25c.3-3.4467 3.18671-6.09 6.64331-6.09z"/></g></svg>

<svg width="53" height="60" viewBox="0 0 53 60" fill="none" xmlns="http://www.w3.org/2000/svg">
<path d="M18.5625 15.8333V10C18.5625 5.85667 21.9192 2.5 26.0625 2.5C30.2058 2.5 33.5625 5.85667 33.5625 10V15.8333" stroke="#111111" stroke-width="10" stroke-linecap="round" stroke-linejoin="round"/>
<path d="M13.8424 15.8333H38.2858C41.7424 15.8333 44.6291 18.4766 44.9258 21.9233L47.0991 46.9233C47.4391 50.8199 44.3658 54.1666 40.4591 54.1666H11.6658C7.75575 54.1666 4.68575 50.8166 5.02575 46.9233L7.19909 21.9233C7.49909 18.4766 10.3858 15.8333 13.8424 15.8333Z" stroke="#111111" stroke-width="10" stroke-linecap="round" stroke-linejoin="round"/>
</svg>
